img/react-logo.svg

<svg width="31" height="31" viewBox="0 0 31 31" fill="none" xmlns="http://www.w3.org/2000/svg">
<path d="M18.2258 15.4774C18.2258 14.1327 17.1015 13.0424 15.7143 13.0424C14.3274 13.0424 13.2029 14.1327 13.2029 15.4774C13.2029 16.8224 14.3274 17.9126 15.7143 17.9126C17.1015 17.9126 18.2258 16.8224 18.2258 15.4774Z" fill="#53C1DE"/>
<path fill-rule="evenodd" clip-rule="evenodd" d="M23.871 10.9566C24.4013 8.86698 25.068 4.99201 22.7179 3.67827C20.3787 2.37026 17.3347 4.87665 15.7274 6.38111C14.1247 4.89164 10.9953 2.39597 8.64713 3.71388C6.3089 5.02628 7.02996 8.837 7.57207 10.9397C5.3909 11.5404 1.65186 12.8341 1.65186 15.4774C1.65186 18.1132 5.38701 19.5207 7.55527 20.1208C7.01115 22.2352 6.32619 25.9915 8.66742 27.301C11.0243 28.6186 14.144 26.1823 15.7663 24.6614C17.384 26.1747 20.3987 28.627 22.7383 27.3138C25.0852 25.9965 24.474 22.1735 23.9318 20.0586C26.0337 19.4572 29.7769 18.0803 29.7769 15.4774C29.7769 12.8595 26.0178 11.5553 23.871 10.9566ZM23.6045 18.9378C23.2486 17.8452 22.7681 16.6834 22.1804 15.4832C22.7414 14.3113 23.2032 13.1645 23.5492 12.079C25.123 12.5214 28.5754 13.5325 28.5754 15.4774C28.5754 17.4406 25.2624 18.4613 23.6045 18.9378ZM22.1362 26.3056C20.3906 27.2853 17.7976 24.9402 16.6029 23.8258C17.3955 22.9854 18.1875 22.0083 18.9604 20.9233C20.3202 20.8064 21.6047 20.6152 22.7696 20.3541C23.1512 21.8501 23.8895 25.3215 22.1362 26.3056ZM9.26775 26.2917C7.52195 25.3156 8.3199 21.9637 8.7202 20.4062C9.87217 20.6533 11.1474 20.8311 12.5104 20.9382C13.2884 21.9999 14.1034 22.9757 14.9246 23.8303C13.9099 24.782 11.0217 27.2722 9.26775 26.2917ZM2.85325 15.4774C2.85325 13.5069 6.28505 12.5031 7.89471 12.0618C8.24671 13.1717 8.70837 14.3322 9.26551 15.5058C8.70115 16.6968 8.23289 17.8757 7.87765 18.9987C6.34281 18.5727 2.85325 17.4492 2.85325 15.4774ZM9.24907 4.72207C11.002 3.73827 13.7219 6.13421 14.8855 7.21262C14.0685 8.06332 13.261 9.03181 12.4896 10.0873C11.1669 10.2062 9.90068 10.3971 8.73663 10.6528C8.2999 8.95691 7.49803 5.7048 9.24907 4.72207ZM19.8199 11.3535C20.7173 11.4633 21.5771 11.6094 22.3844 11.7881C22.142 12.5412 21.84 13.3288 21.4842 14.1362C20.9685 13.1875 20.4149 12.2577 19.8199 11.3535ZM15.7278 8.04509C16.2819 8.62716 16.8369 9.27715 17.3829 9.98234C16.2754 9.93153 15.1662 9.93134 14.0587 9.98159C14.6052 9.28295 15.165 8.63392 15.7278 8.04509ZM9.95482 14.1354C9.60494 13.3308 9.30559 12.5397 9.06112 11.7758C9.86359 11.6017 10.7194 11.4594 11.6109 11.3514C11.0143 12.2536 10.4616 13.183 9.95482 14.1354ZM11.6365 19.6866C10.7155 19.5869 9.84679 19.4518 9.04457 19.2825C9.29289 18.5052 9.59884 17.697 9.95619 16.8751C10.47 17.8375 11.0311 18.7758 11.6365 19.6866ZM15.761 22.992C15.1916 22.3962 14.6236 21.7373 14.0689 21.0285C15.1826 21.0709 16.2985 21.071 17.4122 21.0228C16.8645 21.7445 16.3115 22.4044 15.761 22.992ZM21.4956 16.8333C21.8716 17.6641 22.1884 18.4678 22.4402 19.2321C21.6246 19.4126 20.7442 19.5579 19.8166 19.6658C20.4159 18.7444 20.9783 17.8002 21.4956 16.8333ZM18.2899 19.807C16.5863 19.925 14.8721 19.9237 13.1679 19.8166C12.1996 18.4452 11.3375 17.0028 10.5934 15.5054C11.334 14.0112 12.1897 12.5716 13.1535 11.2023C14.8589 11.0773 16.5748 11.077 18.2802 11.2031C19.2357 12.5723 20.0901 14.0081 20.8478 15.4888C20.0991 16.9824 19.2389 18.4248 18.2899 19.807ZM22.1178 4.68744C23.8712 5.66801 23.0907 9.15055 22.7076 10.6649C21.5408 10.4038 20.2737 10.2096 18.9471 10.0888C18.1743 9.02191 17.3735 8.05173 16.5697 7.21202C17.7483 6.11038 20.3813 3.71646 22.1178 4.68744Z" fill="#53C1DE"/>
</svg>

<svg xmlns="http://www.w3.org/2000/svg" width="31" height="31" fill="none"><path fill="#53C1DE" d="M18.226 15.477c0-1.344-1.124-2.435-2.512-2.435-1.387 0-2.511 1.09-2.511 2.435s1.124 2.436 2.511 2.436c1.388 0 2.512-1.09 2.512-2.436Z"/><path fill="#53C1DE" fill-rule="evenodd" d="M23.871 10.957c.53-2.09 1.197-5.965-1.153-7.279-2.34-1.308-5.383 1.199-6.99 2.703-1.603-1.49-4.733-3.985-7.08-2.667-2.34 1.312-1.618 5.123-1.076 7.226-2.181.6-5.92 1.894-5.92 4.537 0 2.636 3.735 4.044 5.903 4.644-.544 2.114-1.229 5.87 1.112 7.18 2.357 1.318 5.477-1.119 7.1-2.64 1.617 1.514 4.632 3.966 6.971 2.653 2.347-1.317 1.736-5.14 1.194-7.255 2.102-.602 5.845-1.979 5.845-4.582 0-2.617-3.76-3.922-5.906-4.52Zm-.266 7.98a26.85 26.85 0 0 0-1.425-3.454 26.834 26.834 0 0 0 1.37-3.404c1.573.442 5.025 1.454 5.025 3.398 0 1.964-3.313 2.984-4.97 3.46Zm-1.469 7.369c-1.745.98-4.338-1.366-5.533-2.48a27.494 27.494 0 0 0 2.357-2.903 28.845 28.845 0 0 0 3.81-.569c.381 1.496 1.12 4.968-.634 5.952Zm-12.868-.014c-1.746-.976-.948-4.328-.548-5.886a29.06 29.06 0 0 0 3.79.532 28.532 28.532 0 0 0 2.415 2.892c-1.015.952-3.903 3.442-5.657 2.462ZM2.853 15.477c0-1.97 3.432-2.974 5.042-3.415a27.43 27.43 0 0 0 1.37 3.444 27.835 27.835 0 0 0-1.387 3.493c-1.535-.426-5.025-1.55-5.025-3.522ZM9.25 4.722c1.753-.984 4.473 1.412 5.636 2.49a28.11 28.11 0 0 0-2.395 2.875c-1.323.12-2.59.31-3.753.566-.437-1.696-1.239-4.948.512-5.93Zm10.57 6.631c.898.11 1.758.256 2.565.435-.242.753-.544 1.54-.9 2.348a38.57 38.57 0 0 0-1.664-2.782Zm-4.091-3.308c.554.582 1.109 1.232 1.655 1.937a36.467 36.467 0 0 0-3.324 0 25.928 25.928 0 0 1 1.669-1.937Zm-5.773 6.09c-.35-.804-.65-1.595-.894-2.36a27.903 27.903 0 0 1 2.55-.424 34.025 34.025 0 0 0-1.656 2.784Zm1.681 5.552c-.92-.1-1.79-.235-2.591-.405.248-.777.554-1.585.911-2.407.514.962 1.075 1.9 1.68 2.812Zm4.125 3.305a26.38 26.38 0 0 1-1.692-1.963c1.114.042 2.23.042 3.343-.006-.547.721-1.1 1.381-1.651 1.969Zm5.735-6.159c.376.831.692 1.635.944 2.4-.815.18-1.696.325-2.623.433.599-.922 1.161-1.866 1.679-2.833Zm-3.206 2.974a38.891 38.891 0 0 1-5.122.01 32.74 32.74 0 0 1-2.575-4.312 32.733 32.733 0 0 1 2.56-4.303 34.938 34.938 0 0 1 5.127.001 36.697 36.697 0 0 1 2.568 4.286 36.692 36.692 0 0 1-2.558 4.318Zm3.828-15.12c1.753.981.973 4.464.59 5.978a29.628 29.628 0 0 0-3.76-.576 27.539 27.539 0 0 0-2.378-2.877c1.178-1.102 3.811-3.496 5.548-2.525Z" clip-rule="evenodd"/></svg>
